icons/sun-line.svg

<svg xmlns="http://www.w3.org/2000/svg" width="24" height="24" fill="none"><g clip-path="url(#a)"><g><path fill="#121212" d="M12 18C10.4087 18 8.88258 17.3679 7.75736 16.2426C6.63214 15.1174 6 13.5913 6 12C6 10.4087 6.63214 8.88258 7.75736 7.75736C8.88258 6.63214 10.4087 6 12 6C13.5913 6 15.1174 6.63214 16.2426 7.75736C17.3679 8.88258 18 10.4087 18 12C18 13.5913 17.3679 15.1174 16.2426 16.2426C15.1174 17.3679 13.5913 18 12 18ZM12 16C13.0609 16 14.0783 15.5786 14.8284 14.8284C15.5786 14.0783 16 13.0609 16 12C16 10.9391 15.5786 9.92172 14.8284 9.17157C14.0783 8.42143 13.0609 8 12 8C10.9391 8 9.92172 8.42143 9.17157 9.17157C8.42143 9.92172 8 10.9391 8 12C8 13.0609 8.42143 14.0783 9.17157 14.8284C9.92172 15.5786 10.9391 16 12 16ZM11 1H13V4H11V1ZM11 20H13V23H11V20ZM3.515 4.929L4.929 3.515L7.05 5.636L5.636 7.05L3.515 4.93V4.929ZM16.95 18.364L18.364 16.95L20.485 19.071L19.071 20.485L16.95 18.364ZM19.071 3.514L20.485 4.929L18.364 7.05L16.95 5.636L19.071 3.515V3.514ZM5.636 16.95L7.05 18.364L4.929 20.485L3.515 19.071L5.636 16.95ZM23 11V13H20V11H23ZM4 11V13H1V11H4Z"/></g></g><defs><clipPath id="a"><rect width="24" height="24" fill="white"/></clipPath></defs></svg>

<svg width="24" height="24" fill="none" xmlns="http://www.w3.org/2000/svg"><g clip-path="url(#a)"><path d="M12 18a6 6 0 1 1 0-12 6 6 0 0 1 0 12Zm0-2a4 4 0 1 0 0-8 4 4 0 0 0 0 8ZM11 1h2v3h-2V1Zm0 19h2v3h-2v-3ZM3.515 4.929l1.414-1.414L7.05 5.636 5.636 7.05 3.515 4.93v-.001ZM16.95 18.364l1.414-1.414 2.121 2.121-1.414 1.414-2.121-2.121Zm2.121-14.85 1.414 1.415-2.121 2.121-1.414-1.414 2.121-2.121v-.001ZM5.636 16.95l1.414 1.414-2.121 2.121-1.414-1.414 2.121-2.121ZM23 11v2h-3v-2h3ZM4 11v2H1v-2h3Z" /></g><defs><clipPath id="a"><path fill="#fff" d="M0 0h24v24H0z"/></clipPath></defs></svg>
